assets/faders/faders-fill.svg

<svg id="Raw" xmlns="http://www.w3.org/2000/svg" viewBox="0 0 256.00098 256.00098">
  <rect width="256" height="256" fill="none"/>
  <g>
    <path d="M128.001,111.99988a8.00008,8.00008,0,0,0-8,8v96a8,8,0,0,0,16,0v-96A8.00008,8.00008,0,0,0,128.001,111.99988Z"/>
    <path d="M200.001,191.99988a7.99987,7.99987,0,0,0-8,8.00049l.001,16a8,8,0,0,0,16-.001l-.001-16A8,8,0,0,0,200.001,191.99988Z"/>
    <path d="M224.001,159.99988h-16l.001-120a8,8,0,1,0-16,0l-.001,120h-16a8,8,0,0,0,0,16h48a8,8,0,0,0,0-16Z"/>
    <path d="M56.001,159.99988a8.00039,8.00039,0,0,0-8,8l-.00049,48a8,8,0,0,0,16,0l.00049-48A8.00009,8.00009,0,0,0,56.001,159.99988Z"/>
    <path d="M80.001,127.99988h-16l-.00049-88a8,8,0,0,0-16,0l.00049,88h-16a8,8,0,0,0,0,16h48a8,8,0,1,0,0-16Z"/>
    <path d="M152.001,79.99988h-16v-40a8,8,0,1,0-16,0v40h-16a8,8,0,0,0,0,16h48a8,8,0,0,0,0-16Z"/>
  </g>
</svg>

<svg xmlns="http://www.w3.org/2000/svg" viewBox="0 0 256 256"><rect width="256" height="256" fill="none"/><path d="M128,112a8,8,0,0,0-8,8v96a8,8,0,0,0,16,0V120A8,8,0,0,0,128,112Z"/><path d="M200,192a8,8,0,0,0-8,8v16a8,8,0,0,0,16,0V200A8,8,0,0,0,200,192Z"/><path d="M224,160H208V40a8,8,0,0,0-16,0V160H176a8,8,0,0,0,0,16h48a8,8,0,0,0,0-16Z"/><path d="M56,160a8,8,0,0,0-8,8v48a8,8,0,0,0,16,0V168A8,8,0,0,0,56,160Z"/><path d="M80,128H64V40a8,8,0,0,0-16,0v88H32a8,8,0,0,0,0,16H80a8,8,0,0,0,0-16Z"/><path d="M152,80H136V40a8,8,0,0,0-16,0V80H104a8,8,0,0,0,0,16h48a8,8,0,0,0,0-16Z"/></svg>
